X: 2008
T: Jack's Delight
R: reel
B: John Walsh "Caledonian Country Dances"
S: http://petrucci.mus.auth.gr/imglnks/usimg/5/50/IMSLP98359-PMLP202128-walsh_caledonian_country_dance_vol2.1.pdf
Z: 2013 John Chambers <jc:trillian.mit.edu>
N: The 2nd part has initial repeat but no final repeat.
M: C|
L: 1/8
K: G
% - - - - - - - - - - - - - - - - - - - - - - - - -
V: 1
|: ga/b/ ag Tf2 ed | TB2 AG E/E/E E2 | ga/b/ ag Tf2 ed | B2 AG D/D/D D2 :|
|: Bd-dc/d/ ec Tc2 | Ac-cB/c/ dB TB2 | GB-BA/B/ cA-AB/c/ | dBcA G/G/G G2 |]
% - - - - - - - - - - - - - - - - - - - - - - - - -
V: 2 clef=bass middle=d
|: g2c2 d2f2 | g4 c4 | g2c2 d2f2 | g4 d4 :|
|: g2b2 c'2a2 | f2a2 b2g2 | e2g2 a2f2 | g2d2 g4 |]
% - - - - - - - - - - - - - - - - - - - - - - - - -
%%begintext align
The 1st Man casts of and turns the 3d Wo. and remains in the 2d Man's Place .|
the 1st Wo. does the same :|
Hands round all Six .|.
Right hand and Left :|:
%%endtext
